X:11
T:Dennis Doody's
R:polka
M:2/4
L:1/8
K:Emin
|GE E/F/E/D/|GE E>G|F/G/A/F/ D>E|FG A/c/B/A/|
|GE E/F/E/D/|GE E>G|F/G/A/F/ D>E|1 GF DF:|2 GF d2||
|:Be e/f/e/d/|Be e>d|Be e/d/e/f/|fg e(f|
|f)g fg|eB BA|B2 EF|GA B2:|
